X: 13722
T: Forbes Morrison
R: strathspey
M: 4/4
K: Amajor
|:c<AE>D C>EA,>C|D>F B>A (3GBe (3dcB|
c<AE>D C>EA,>C|1 (3DFB (3GEG (3Afe (3dcB:|2 (3DFB (3GEG A2A<g||
a>fg>e f<de>c|d>Bc>A (3Bcd (3efg|a>fg>e f<de>a|(3gfe (3dcB A2A>g|
(3afa (3geg (3fdf (3ece|(3dBd (3cAc (3Bcd (3efg|(3aga (3efg (3aed (3cBA|(3Gfe (3dcB A2e>d|

